app/dist/common/images/ludwig-beck-am-rathauseck.svg

<svg height="18" viewBox="0 0 18 18" width="18" xmlns="http://www.w3.org/2000/svg"><path d="m0 0h18v18h-18z" fill="#ff9c75"/><path d="m10.56 4-1.14 1.5h-1.31l-1.14 1.5h-1.27l-1.52 2h1.45l1.06-1.5h1.34l1.07-1.5h1.39l1.42-2zm-.18 2.19-1.28 1.56h-1.18l-1.26 1.56h-1.14l-1.52 1.89h1.45l1.18-1.57h1.22l1.19-1.56h1.27l1.42-1.87h-1.35zm1.12 2.31 1.15-1.5h1.35l-1.42 2h1.29l-1.43 2h-1.38l-1.07 1.5h-1.34l-1.07 1.5h-1.44l1.52-2h-1.39l1.52-2h1.27l1.14-1.5h1.31zm-3.79 3.5h1.21l1.14-1.5h-1.28l-1.06 1.5zm2.41-1.5h1.26l1.14-1.5h-1.33z" fill="#fff"/></svg>

<!-- by TradingView --><svg width="18" height="18" viewBox="0 0 18 18" xmlns="http://www.w3.org/2000/svg"><path fill="#FF9C75" d="M0 0h18v18H0z"/><path d="M10.56 4 9.42 5.5H8.11L6.97 7H5.7L4.18 9h1.45l1.06-1.5h1.34L9.1 6h1.39l1.42-2h-1.35Zm-.18 2.19L9.1 7.75H7.92L6.66 9.31H5.52L4 11.2h1.45l1.18-1.57h1.22l1.19-1.56h1.27l1.42-1.87h-1.35ZM11.5 8.5 12.65 7H14l-1.42 2h1.29l-1.43 2h-1.38l-1.07 1.5H8.65L7.58 14H6.14l1.52-2H6.27l1.52-2h1.27l1.14-1.5h1.31ZM7.71 12h1.21l1.14-1.5H8.78L7.72 12Zm2.41-1.5h1.26L12.52 9h-1.33l-1.07 1.5Z" fill="#fff"/></svg>
